puzzle-edit-outline.svg

<svg fill="currentColor" viewBox="0 0 24 24"><path d="M21.04 12.13c-.14 0-.28.06-.39.17l-1 1 2.05 2.05 1-1c.22-.21.22-.56 0-.77l-1.28-1.28a.53.53 0 0 0-.38-.17m-1.97 1.75L13 19.94V22h2.06l6.06-6.07zm-8.02 5.18c-.18-.06-.36-.06-.55-.06-1.5 0-2.7 1.21-2.7 2.7v.3H4a2 2 0 0 1-2-2v-3.8h.3C3.79 16.2 5 15 5 13.5s-1.21-2.7-2.7-2.7H2V7c0-1.1.9-2 2-2h3.04c.24-1.7 1.7-3 3.46-3s3.22 1.3 3.46 3H17a2 2 0 0 1 2 2v3.04c.36.05.69.17 1 .32-.27.14-.54.3-.76.53L18.12 12H17V7h-5V5.5c0-.83-.67-1.5-1.5-1.5S9 4.67 9 5.5V7H4v2.12c1.76.68 3 2.38 3 4.38s-1.25 3.7-3 4.38V20h2.12a4.7 4.7 0 0 1 4.38-3c.76 0 1.5.18 2.11.5z"/></svg>

<svg  viewBox="0 0 24 24" fill="currentColor"><path  d="M21.04 12.13C20.9 12.13 20.76 12.19 20.65 12.3L19.65 13.3L21.7 15.35L22.7 14.35C22.92 14.14 22.92 13.79 22.7 13.58L21.42 12.3C21.31 12.19 21.18 12.13 21.04 12.13M19.07 13.88L13 19.94V22H15.06L21.12 15.93L19.07 13.88M11.05 19.06C10.87 19 10.69 19 10.5 19C9 19 7.8 20.21 7.8 21.7V22H4C2.9 22 2 21.11 2 20V16.2H2.3C3.79 16.2 5 15 5 13.5S3.79 10.8 2.3 10.8H2V7C2 5.9 2.9 5 4 5H7.04C7.28 3.3 8.74 2 10.5 2S13.72 3.3 13.96 5H17C18.11 5 19 5.9 19 7V10.04C19.36 10.09 19.69 10.21 20 10.36C19.73 10.5 19.46 10.66 19.24 10.89L18.12 12H17V7H12V5.5C12 4.67 11.33 4 10.5 4S9 4.67 9 5.5V7H4V9.12C5.76 9.8 7 11.5 7 13.5S5.75 17.2 4 17.88V20H6.12C6.8 18.25 8.5 17 10.5 17C11.26 17 12 17.18 12.61 17.5L11.05 19.06Z"/></svg>
